X: 39983
T: Three Ducks And A Goose
R: jig
M: 6/8
K: Gmajor
|:D|GFG AGA|BGE (E/F/GE)|DB,D GBd|edB ABd|
gdB gdB|cBc ABc|(B/c/dB) cAF|AGF G2:|
|:d|gfg dBd|eaa age|deg aeg|abe eBd|gfe dcB|
AGA BGE|GFG AGA|BGE (E/F/GE)|DB,D GBd|edB ABd|
gdB gdB|cBc ABc|(B/c/dB) cAF|AGF G2:|

